public/images/icon-app-vscode.svg

<svg xmlns="http://www.w3.org/2000/svg" width="48" height="48" fill="none"><path fill="#fff" d="M0 0h48v48H0z"/><path fill="#29B6F6" d="M44 11.11v25.78c0 1.27-.79 2.4-1.98 2.82l-8.82 4.14L34 33V15l-.8-10.85 8.82 4.14A2.98 2.98 0 0 1 44 11.11Z"/><path fill="#0277BD" d="M9 33.896 34 15V5.353c0-1.198-1.482-1.758-2.275-.86L4.658 29.239a2 2 0 0 0 .107 3.032s1.324 1.232 1.803 1.574c.736.525 1.703.585 2.432.051Z"/><path fill="#0288D1" d="M9 14.104 34 33v9.647c0 1.198-1.482 1.758-2.275.86L4.658 18.761a2 2 0 0 1 .107-3.032s1.324-1.232 1.803-1.574c.736-.525 1.703-.585 2.432-.051Z"/></svg>

<svg width="48" height="48" viewBox="0 0 48 48" fill="none" xmlns="http://www.w3.org/2000/svg">
<rect width="48" height="48" fill="white"/>
<path d="M44 11.11V36.89C44 38.16 43.21 39.29 42.02 39.71L33.2 43.85L34 33V15L33.2 4.15L42.02 8.29C43.21 8.71 44 9.84 44 11.11Z" fill="#29B6F6"/>
<path d="M9 33.896L34 15V5.353C34 4.155 32.518 3.595 31.725 4.493L4.658 29.239C3.758 30.069 3.809 31.506 4.765 32.271C4.765 32.271 6.089 33.503 6.568 33.845C7.304 34.37 8.271 34.43 9 33.896Z" fill="#0277BD"/>
<path d="M9 14.104L34 33V42.647C34 43.845 32.518 44.405 31.725 43.507L4.658 18.761C3.758 17.931 3.809 16.494 4.765 15.729C4.765 15.729 6.089 14.497 6.568 14.155C7.304 13.63 8.271 13.57 9 14.104Z" fill="#0288D1"/>
</svg>
